icons/svg/education/driving_school.svg

<?xml version="1.0" encoding="UTF-8" standalone="no"?>
<!-- Created with Inkscape (http://www.inkscape.org/) -->

<svg
   xmlns:dc="http://purl.org/dc/elements/1.1/"
   xmlns:cc="http://creativecommons.org/ns#"
   xmlns:rdf="http://www.w3.org/1999/02/22-rdf-syntax-ns#"
   xmlns:svg="http://www.w3.org/2000/svg"
   xmlns="http://www.w3.org/2000/svg"
   xmlns:sodipodi="http://sodipodi.sourceforge.net/DTD/sodipodi-0.dtd"
   xmlns:inkscape="http://www.inkscape.org/namespaces/inkscape"
   version="1.0"
   width="580"
   height="580"
   id="svg2"
   sodipodi:version="0.32"
   inkscape:version="0.91 r"
   sodipodi:docname="driving_school.svg"
   inkscape:output_extension="org.inkscape.output.svg.inkscape">
  <metadata
     id="metadata2975">
    <rdf:RDF>
      <cc:Work
         rdf:about="">
        <dc:format>image/svg+xml</dc:format>
        <dc:type
           rdf:resource="http://purl.org/dc/dcmitype/StillImage" />
        <cc:license
           rdf:resource="http://web.resource.org/cc/PublicDomain" />
        <dc:language>en</dc:language>
        <dc:title></dc:title>
      </cc:Work>
    </rdf:RDF>
  </metadata>
  <sodipodi:namedview
     inkscape:window-height="995"
     inkscape:window-width="1280"
     inkscape:pageshadow="2"
     inkscape:pageopacity="0.0"
     guidetolerance="10.0"
     gridtolerance="10.0"
     objecttolerance="10.0"
     borderopacity="1.0"
     bordercolor="#666666"
     pagecolor="#ffffff"
     id="base"
     inkscape:zoom="0.25"
     inkscape:cx="-304.96495"
     inkscape:cy="249.20671"
     inkscape:window-x="0"
     inkscape:window-y="0"
     inkscape:current-layer="svg2"
     showgrid="false"
     inkscape:window-maximized="1" />
  <defs
     id="defs4">
    <inkscape:perspective
       sodipodi:type="inkscape:persp3d"
       inkscape:vp_x="0 : 290 : 1"
       inkscape:vp_y="0 : 1000 : 0"
       inkscape:vp_z="580 : 290 : 1"
       inkscape:persp3d-origin="290 : 193.33333 : 1"
       id="perspective2441" />
    <inkscape:perspective
       id="perspective3452"
       inkscape:persp3d-origin="30 : 20 : 1"
       inkscape:vp_z="60 : 30 : 1"
       inkscape:vp_y="0 : 1000 : 0"
       inkscape:vp_x="0 : 30 : 1"
       sodipodi:type="inkscape:persp3d" />
    <symbol
       viewBox="244.5 110 489 219.9"
       id="symbol-university">
      <path
         id="path4460"
         d="M79,43l57,119c0,0,21-96,104-96s124,106,124,106l43-133l82-17L0,17L79,43z" />
      <path
         id="path4462"
         d="M94,176l-21,39"
         stroke-width="20"
         stroke="#000000"
         fill="none" />
      <path
         id="path4464"
         d="M300,19c0,10.5-22.6,19-50.5,19S199,29.5,199,19s22.6-19,50.5-19S300,8.5,300,19z" />
      <path
         id="path4466"
         d="M112,216l-16-38L64,88c0,0-9-8-4-35s16-24,16-24"
         stroke-width="20"
         stroke="#000000"
         ill="none" />
    </symbol>
    <inkscape:perspective
       id="perspective4471"
       inkscape:persp3d-origin="372.04724 : 350.78739 : 1"
       inkscape:vp_z="744.09448 : 526.18109 : 1"
       inkscape:vp_y="0 : 1000 : 0"
       inkscape:vp_x="0 : 526.18109 : 1"
       sodipodi:type="inkscape:persp3d" />
    <inkscape:perspective
       id="perspective4668"
       inkscape:persp3d-origin="6 : 4 : 1"
       inkscape:vp_z="12 : 6 : 1"
       inkscape:vp_y="0 : 1000 : 0"
       inkscape:vp_x="0 : 6 : 1"
       sodipodi:type="inkscape:persp3d" />
  </defs>
  <g
     id="g1327">
    <path
       d="M 66.275,1.768 C 24.94,1.768 1.704,23.139 1.704,66.804 L 1.704,516.927 C 1.704,557.771 22.599,579.156 63.896,579.156 L 515.92,579.156 C 557.227,579.156 578.149,558.841 578.149,516.927 L 578.149,66.804 C 578.149,24.203 557.227,1.768 514.628,1.768 C 514.624,1.768 66.133,1.625 66.275,1.768 z "
       style="fill:#111;stroke:#eee;stroke-width:3.40799999"
       id="path1329" />
  </g>
  <path
     style="fill:#ffffff;fill-opacity:1"
     d="M 142.30664,34 C 109.69619,34 83.23047,60.465718 83.23047,93.076172 l 0,39.384768 0,295.38476 0,39.38477 c 0,36.72615 69.88741,78.76953 98.46094,78.76953 l 256,0 c 32.57107,0 59.07812,-26.50509 59.07812,-59.07617 l 0,-354.46289 c 0,-32.571065 -26.50705,-59.076174 -59.07812,-59.076174 l -3.62305,0 C 425.91574,50.502311 404.31371,34 378.61524,34 l -236.3086,0 z m 117.42383,78 c 88.6978,0 161,72.3022 161,161 0,88.6978 -72.3022,161 -161,161 -88.6978,0 -161,-72.3022 -161,-161 0,-88.6978 72.3022,-161 161,-161 z m 177.96094,0.76953 c 10.85046,0 19.69336,8.82127 19.69336,19.69141 l 0,354.46289 c 0,10.87015 -8.8429,19.6914 -19.69336,19.6914 l -256,0 c -7.26645,-0.0788 -24.77287,-9.54987 -38.93164,-19.6914 l 235.85547,0 c 32.61047,0 59.07617,-26.46768 59.07617,-59.07813 l 0,-315.07617 z M 259.73047,149.1543 c -62.19895,0 -113.39498,45.37674 -122.42969,104.97265 73.14207,-3.10162 76.84585,-30.66601 122.42969,-30.66601 45.54538,0 50.37722,27.51992 122.42773,30.66015 C 373.12098,194.52813 321.92733,149.1543 259.73047,149.1543 Z m 0,94.12304 c -16.1,0 -29.72266,13.62266 -29.72266,29.72266 0,16.1 13.62266,29.72266 29.72266,29.72266 16.1,0 29.72266,-13.62266 29.72266,-29.72266 0,-16.1 -13.62266,-29.72266 -29.72266,-29.72266 z m -121.38672,54.49219 c 9.80096,48.66773 47.94946,86.81623 96.61719,96.61719 l 0,-59.46289 c 0,-18.57693 -17.33892,-37.1543 -37.1543,-37.1543 l -59.46289,0 z m 183.31055,0 c -18.57693,0 -37.1543,18.57737 -37.1543,37.1543 l 0,59.46289 c 48.66773,-9.80096 86.81623,-47.94946 96.61719,-96.61719 l -59.46289,0 z"
     id="path3"
     inkscape:connector-curvature="0" />
</svg>

<svg width="580" height="580" viewBox="0 0 580 580" fill="none" xmlns="http://www.w3.org/2000/svg">
<g clip-path="url(#clip0)">
<path d="M66.275 1.76799C24.94 1.76799 1.70398 23.139 1.70398 66.804V516.927C1.70398 557.771 22.599 579.156 63.896 579.156H515.92C557.227 579.156 578.149 558.841 578.149 516.927V66.804C578.149 24.203 557.227 1.76799 514.628 1.76799C514.624 1.76799 66.133 1.62499 66.275 1.76799Z" fill="#111111" stroke="#EEEEEE" stroke-width="3.408"/>
<path d="M142.307 34C109.696 34 83.2305 60.4657 83.2305 93.0762V132.461V427.846V467.23C83.2305 503.957 153.118 546 181.691 546H437.691C470.262 546 496.77 519.495 496.77 486.924V132.461C496.77 99.8899 470.262 73.3848 437.691 73.3848H434.068C425.916 50.5023 404.314 34 378.615 34H142.307V34ZM259.73 112C348.428 112 420.73 184.302 420.73 273C420.73 361.698 348.428 434 259.73 434C171.033 434 98.7305 361.698 98.7305 273C98.7305 184.302 171.033 112 259.73 112ZM437.691 112.77C448.542 112.77 457.385 121.591 457.385 132.461V486.924C457.385 497.794 448.542 506.615 437.691 506.615H181.691C174.425 506.536 156.919 497.065 142.76 486.924H378.615C411.226 486.924 437.691 460.456 437.691 427.846V112.77V112.77ZM259.73 149.154C197.532 149.154 146.335 194.531 137.301 254.127C210.443 251.025 214.147 223.461 259.73 223.461C305.276 223.461 310.108 250.981 382.158 254.121C373.121 194.528 321.927 149.154 259.73 149.154ZM259.73 243.277C243.63 243.277 230.008 256.9 230.008 273C230.008 289.1 243.63 302.723 259.73 302.723C275.83 302.723 289.453 289.1 289.453 273C289.453 256.9 275.83 243.277 259.73 243.277ZM138.344 297.77C148.145 346.437 186.293 384.586 234.961 394.387V334.924C234.961 316.347 217.622 297.77 197.807 297.77H138.344V297.77ZM321.654 297.77C303.077 297.77 284.5 316.347 284.5 334.924V394.387C333.168 384.586 371.316 346.437 381.117 297.77H321.654Z" fill="white"/>
</g>
<defs>
<clipPath id="clip0">
<path d="M0 0H580V580H0V0Z" fill="white"/>
</clipPath>
</defs>
</svg>
